X:439
T:The Girls I Have Courted
N:"Playful" "collected by J.O'Neill"
N:Irish title: cailini.de do .bias a suiri.de
B:O'Neill's 439
Z:Transcribed by henrik.norbeck@mailbox.swipnet.se
M:3/4
L:1/8
K:G
D/E/4F/4 GB|A2 GE FA/B/|c2 Bd cA|G2 AG AGF|D3 D/E/4F/4 GB|
A2 GE FA/B/|c2 Bd ec|A2 FA GG|G3||
z/ B/4c/4 df|g2 gf/e/ dc|B2 AB/c/ dd|c2 AF GF|D3 D/E/4F/4 GB|
A2 GE FA/B/|c2 Bd ec|A2 FA GG|G3||
